icons/svg/foursquare.svg

﻿<?xml version="1.0" encoding="utf-8"?>
<!DOCTYPE svg PUBLIC "-//W3C//DTD SVG 1.1//EN" "http://www.w3.org/Graphics/SVG/1.1/DTD/svg11.dtd">
<svg xmlns="http://www.w3.org/2000/svg" xmlns:xlink="http://www.w3.org/1999/xlink" version="1.1" baseProfile="full" width="24" height="24" viewBox="0 0 24.00 24.00" enable-background="new 0 0 24.00 24.00" xml:space="preserve">
	<path fill="#000000" fill-opacity="1" stroke-linejoin="round" d="M 17,5L 16.5728,7.4822C 16.5193,7.73452 16.2016,8 15.907,8C 15.6125,8 12,8 12,8C 11.5323,8 10.9475,8.31884 10.9475,8.78611L 10.9452,9.20093C 10.9452,9.6686 11.5319,10 12,10C 12,10 14.9468,10 15.2767,10C 15.607,10 15.9312,10.3622 15.8597,10.7148C 15.788,11.0679 14.9447,13.2834 14.9044,13.4765C 14.864,13.6698 14.6427,14 14.25,14C 13.9191,14 11.3713,14 11.3713,14C 10.8469,14 10.6884,14.0685 10.3377,14.5044C 9.98671,14.9407 7.26802,18.097 7.26802,18.097C 7.23607,18.1337 7,18.0401 7,18L 7,5C 7,4.70155 7.61091,4 8,4C 8,4 16.1658,4 16.5,4C 16.8152,4 17.0804,4.61297 17,5 Z M 16.9922,14.4481C 17.1113,13.9663 18.7771,6.71921 19.2233,4.54897M 17.5761,2C 17.5761,2 8.37788,2 6.90553,2C 5.43292,2 5,3.10742 5,3.8048C 5,4.50269 5,20.7589 5,20.7589C 5,21.5445 5.42219,21.8358 5.65929,21.9319C 5.89665,22.0281 6.55134,22.1091 6.94362,21.6564C 6.94362,21.6564 11.6517,16.2174 11.7382,16.1309C 11.8691,16 11.8691,16 12,16C 12.2618,16 14.2035,16 15.2593,16C 16.6289,16 16.8491,15.0233 16.9922,14.4481C 17.1113,13.9663 18.7771,6.71921 19.2233,4.54897C 19.5639,2.89281 19.1431,2 17.5761,2 Z "/>
</svg>

<svg xmlns="http://www.w3.org/2000/svg" version="1.1" baseProfile="full" width="24" height="24" viewBox="0 0 24.00 24.00" xml:space="preserve"><path fill="#000" fill-opacity="1" stroke-linejoin="round" d="M17 5l-.427 2.482c-.054.253-.37.518-.666.518H12c-.468 0-1.053.32-1.053.786l-.002.415c0 .47.587.8 1.055.8h3.277c.33 0 .654.362.583.715-.072.353-.915 2.568-.956 2.761-.04.194-.26.524-.654.524h-2.88c-.523 0-.682.07-1.032.504-.35.437-3.07 3.593-3.07 3.593C7.236 18.134 7 18.04 7 18V5c0-.298.61-1 1-1h8.5c.315 0 .58.613.5 1zm-.008 9.448c.12-.482 1.785-7.73 2.23-9.9M17.577 2H6.906C5.433 2 5 3.107 5 3.805V20.76c0 .784.422 1.076.66 1.172.237.096.89.177 1.284-.276 0 0 4.708-5.44 4.794-5.525.13-.13.13-.13.262-.13h3.26c1.37 0 1.59-.977 1.732-1.552.12-.482 1.785-7.73 2.23-9.9C19.565 2.894 19.143 2 17.577 2z"/></svg>
